assets/dude/Did–Willie.svg

<svg width="233" height="110" viewBox="0 0 233 110" fill="none" xmlns="http://www.w3.org/2000/svg">
<path d="M57.69 4.45993C56.85 4.45993 56.01 9.49994 55.17 9.49994C54.33 9.49994 53.63 4.31994 52.65 3.19993C51.67 2.07993 45.65 0.679932 38.09 0.679932C30.53 0.679932 25.35 2.07993 24.37 3.19993C23.39 4.31994 22.69 9.49994 21.85 9.49994C21.01 9.49994 20.17 4.45993 19.33 4.45993C15.55 4.45993 1.83004 8.93993 1.13004 9.35993C0.430039 9.77993 0.290039 10.0599 0.290039 10.7599C0.290039 11.4599 2.81004 20.8399 2.81004 39.7399C2.81004 40.4399 3.37004 40.9999 4.07004 40.9999H17.93C18.63 40.9999 19.19 41.5599 19.19 42.2599V67.4599C19.19 68.1599 18.63 68.7199 17.93 68.7199H4.07004C3.37004 68.7199 2.81004 69.2799 2.81004 69.9799C2.81004 88.8799 0.290039 98.2599 0.290039 98.9599C0.290039 99.6599 0.430039 99.9399 1.13004 100.36C1.83004 100.78 15.55 105.26 19.33 105.26C20.17 105.26 21.01 100.22 21.85 100.22C22.69 100.22 23.39 105.4 24.37 106.52C25.35 107.64 30.53 109.04 38.09 109.04C45.65 109.04 51.67 107.64 52.65 106.52C53.63 105.4 54.33 100.22 55.17 100.22C56.01 100.22 56.85 105.26 57.69 105.26C70.01 105.26 86.67 94.3399 86.67 74.5999V35.9599C86.67 15.2399 70.15 4.45993 57.69 4.45993ZM29.27 67.4599V42.2599C29.27 41.5599 29.83 40.9999 30.53 40.9999H67.77C72.67 40.9999 76.59 44.9199 76.59 49.8199V59.8999C76.59 64.7999 72.67 68.7199 67.77 68.7199H30.53C29.83 68.7199 29.27 68.1599 29.27 67.4599Z" fill="#FF1C31"/>
<path d="M136.675 68.7199H122.815C122.115 68.7199 121.555 68.1599 121.555 67.4599V42.2599C121.555 41.5599 122.115 40.9999 122.815 40.9999H136.675C137.375 40.9999 137.935 40.4399 137.935 39.7399C137.935 20.8399 140.455 11.4599 140.455 10.7599C140.455 10.0599 140.315 9.77993 139.615 9.35993C138.915 8.93993 122.815 4.45993 119.035 4.45993C118.195 4.45993 117.355 9.49994 116.515 9.49994C115.675 9.49994 114.835 4.45993 113.995 4.45993C110.215 4.45993 94.1152 8.93993 93.4152 9.35993C92.7152 9.77993 92.5752 10.0599 92.5752 10.7599C92.5752 11.4599 95.0952 20.8399 95.0952 39.7399C95.0952 40.4399 95.6552 40.9999 96.3552 40.9999H110.215C110.915 40.9999 111.475 41.5599 111.475 42.2599V67.4599C111.475 68.1599 110.915 68.7199 110.215 68.7199H96.3552C95.6552 68.7199 95.0952 69.2799 95.0952 69.9799C95.0952 88.8799 92.5752 98.2599 92.5752 98.9599C92.5752 99.6599 92.7152 99.9399 93.4152 100.36C94.1152 100.78 110.215 105.26 113.995 105.26C114.835 105.26 115.675 100.22 116.515 100.22C117.355 100.22 118.195 105.26 119.035 105.26C122.815 105.26 138.915 100.78 139.615 100.36C140.315 99.9399 140.455 99.6599 140.455 98.9599C140.455 98.2599 137.935 88.8799 137.935 69.9799C137.935 69.2799 137.375 68.7199 136.675 68.7199Z" fill="#FF1C31"/>
<path d="M203.706 4.45993C202.866 4.45993 202.026 9.49994 201.186 9.49994C200.346 9.49994 199.646 4.31994 198.666 3.19993C197.686 2.07993 191.666 0.679932 184.106 0.679932C176.546 0.679932 171.366 2.07993 170.386 3.19993C169.406 4.31994 168.706 9.49994 167.866 9.49994C167.026 9.49994 166.186 4.45993 165.346 4.45993C161.566 4.45993 147.846 8.93993 147.146 9.35993C146.446 9.77993 146.306 10.0599 146.306 10.7599C146.306 11.4599 148.826 20.8399 148.826 39.7399C148.826 40.4399 149.386 40.9999 150.086 40.9999H163.946C164.646 40.9999 165.206 41.5599 165.206 42.2599V67.4599C165.206 68.1599 164.646 68.7199 163.946 68.7199H150.086C149.386 68.7199 148.826 69.2799 148.826 69.9799C148.826 88.8799 146.306 98.2599 146.306 98.9599C146.306 99.6599 146.446 99.9399 147.146 100.36C147.846 100.78 161.566 105.26 165.346 105.26C166.186 105.26 167.026 100.22 167.866 100.22C168.706 100.22 169.406 105.4 170.386 106.52C171.366 107.64 176.546 109.04 184.106 109.04C191.666 109.04 197.686 107.64 198.666 106.52C199.646 105.4 200.346 100.22 201.186 100.22C202.026 100.22 202.866 105.26 203.706 105.26C216.026 105.26 232.686 94.3399 232.686 74.5999V35.9599C232.686 15.2399 216.166 4.45993 203.706 4.45993ZM175.286 67.4599V42.2599C175.286 41.5599 175.846 40.9999 176.546 40.9999H213.786C218.686 40.9999 222.606 44.9199 222.606 49.8199V59.8999C222.606 64.7999 218.686 68.7199 213.786 68.7199H176.546C175.846 68.7199 175.286 68.1599 175.286 67.4599Z" fill="#FF1C31"/>
</svg>

<svg xmlns="http://www.w3.org/2000/svg" fill="none" viewBox="0 0 233 110"><path fill="#FF1C31" d="M57.69 4.46c-.84 0-1.68 5.04-2.52 5.04-.84 0-1.54-5.18-2.52-6.3S45.65.68 38.09.68c-7.56 0-12.74 1.4-13.72 2.52-.98 1.12-1.68 6.3-2.52 6.3-.84 0-1.68-5.04-2.52-5.04-3.78 0-17.5 4.48-18.2 4.9-.7.42-.84.7-.84 1.4s2.52 10.08 2.52 28.98c0 .7.56 1.26 1.26 1.26h13.86c.7 0 1.26.56 1.26 1.26v25.2c0 .7-.56 1.26-1.26 1.26H4.07c-.7 0-1.26.56-1.26 1.26 0 18.9-2.52 28.28-2.52 28.98 0 .7.14.98.84 1.4.7.42 14.42 4.9 18.2 4.9.84 0 1.68-5.04 2.52-5.04.84 0 1.54 5.18 2.52 6.3s6.16 2.52 13.72 2.52c7.56 0 13.58-1.4 14.56-2.52.98-1.12 1.68-6.3 2.52-6.3.84 0 1.68 5.04 2.52 5.04 12.32 0 28.98-10.92 28.98-30.66V35.96c0-20.72-16.52-31.5-28.98-31.5zm-28.42 63v-25.2c0-.7.56-1.26 1.26-1.26h37.24c4.9 0 8.82 3.92 8.82 8.82V59.9c0 4.9-3.92 8.82-8.82 8.82H30.53c-.7 0-1.26-.56-1.26-1.26zM136.675 68.72h-13.86c-.7 0-1.26-.56-1.26-1.26v-25.2c0-.7.56-1.26 1.26-1.26h13.86c.7 0 1.26-.56 1.26-1.26 0-18.9 2.52-28.28 2.52-28.98 0-.7-.14-.98-.84-1.4-.7-.42-16.8-4.9-20.58-4.9-.84 0-1.68 5.04-2.52 5.04-.84 0-1.68-5.04-2.52-5.04-3.78 0-19.88 4.48-20.58 4.9-.7.42-.84.7-.84 1.4s2.52 10.08 2.52 28.98c0 .7.56 1.26 1.26 1.26h13.86c.7 0 1.26.56 1.26 1.26v25.2c0 .7-.56 1.26-1.26 1.26h-13.86c-.7 0-1.26.56-1.26 1.26 0 18.9-2.52 28.28-2.52 28.98 0 .7.14.98.84 1.4.7.42 16.8 4.9 20.58 4.9.84 0 1.68-5.04 2.52-5.04.84 0 1.68 5.04 2.52 5.04 3.78 0 19.88-4.48 20.58-4.9.7-.42.84-.7.84-1.4s-2.52-10.08-2.52-28.98c0-.7-.56-1.26-1.26-1.26zM203.706 4.46c-.84 0-1.68 5.04-2.52 5.04-.84 0-1.54-5.18-2.52-6.3s-7-2.52-14.56-2.52c-7.56 0-12.74 1.4-13.72 2.52-.98 1.12-1.68 6.3-2.52 6.3-.84 0-1.68-5.04-2.52-5.04-3.78 0-17.5 4.48-18.2 4.9-.7.42-.84.7-.84 1.4s2.52 10.08 2.52 28.98c0 .7.56 1.26 1.26 1.26h13.86c.7 0 1.26.56 1.26 1.26v25.2c0 .7-.56 1.26-1.26 1.26h-13.86c-.7 0-1.26.56-1.26 1.26 0 18.9-2.52 28.28-2.52 28.98 0 .7.14.98.84 1.4.7.42 14.42 4.9 18.2 4.9.84 0 1.68-5.04 2.52-5.04.84 0 1.54 5.18 2.52 6.3s6.16 2.52 13.72 2.52c7.56 0 13.58-1.4 14.56-2.52.98-1.12 1.68-6.3 2.52-6.3.84 0 1.68 5.04 2.52 5.04 12.32 0 28.98-10.92 28.98-30.66V35.96c0-20.72-16.52-31.5-28.98-31.5zm-28.42 63v-25.2c0-.7.56-1.26 1.26-1.26h37.24c4.9 0 8.82 3.92 8.82 8.82V59.9c0 4.9-3.92 8.82-8.82 8.82h-37.24c-.7 0-1.26-.56-1.26-1.26z"/></svg>
